X:1
T:Lied des Lebens - A Song of Life
T:Ferdinand Hiller
T:Johann Gottfried Herder engl.: Constance Bache
T:Lied des Lebens - A Song of Life
T:CPDL - Creative Commons Attribution Non Commercial 3.0
T:CPDL - Creative Commons Attribution Non Commercial 3.0
T:CPDL - Creative Commons Attribution Non Commercial 3.0
T:CPDL - Creative Commons Attribution Non Commercial 3.0
T:CPDL - Creative Commons Attribution Non Commercial 3.0
T:CPDL - Creative Commons Attribution Non Commercial 3.0
T:CPDL - Creative Commons Attribution Non Commercial 3.0
T:CPDL - Creative Commons Attribution Non Commercial 3.0
T:CPDL - Creative Commons Attribution Non Commercial 3.0
T:CPDL - Creative Commons Attribution Non Commercial 3.0
T:CPDL - Creative Commons Attribution Non Commercial 3.0
T:CPDL - Creative Commons Attribution Non Commercial 3.0
T:CPDL - Creative Commons Attribution Non Commercial 3.0
T:CPDL - Creative Commons Attribution Non Commercial 3.0
T:CPDL - Creative Commons Attribution Non Commercial 3.0
C:Ferdinand Hiller
Z:Johann Gottfried Herder
Z:CPDL - Creative Commons Attribution Non Commercial 3.0
%%score [ ( 1 2 3 ) 4 5 ] { ( 6 8 ) | ( 7 9 ) }
L:1/8
Q:1/4=100
M:3/4
K:E
V:1 treble nm="Sopran\nAlt"
V:2 treble 
V:3 treble 
V:4 treble-8 nm="Tenor"
V:5 bass nm="Bass"
V:6 treble nm="Klavier"
V:8 treble 
V:7 bass 
V:9 bass 
V:1
"^Lebendig\nAnimato""^dolce" A>G G2 z2 | c>B B2 z2 | e>e dc Bc | AB AG!<(! B>c | d2 d>e!<)! f2 | %5
w: Flüch- ti- ger,|flüch- ti- ger,|flüch- ti- ger als Wind, als|Wind und Wel- le flieht die|Zeit, flieht die Zeit,|
w: Swift- er far,|swift- er far,|swift- er than the waves, the|waves and breez- es flees the|time, flees the time,|
 z2!f! =g2 ^A>e | (e2 d2) z2 |!mf! G>A B2 e2 | c>F B2 A2 | G>A B2 g2 | f>c e2 d2 |!f! c>d (ec) BA | %12
w: was hält sie|auf? _|Sie ge- nie- ßen|auf der Stel- le,|sie ge- nie- ßen|auf der Stel- le,|sie er- grei- fen, sie er-|
w: what stays its|flight? _|To en- joy it|ere it pass- es,|to en- joy it|ere it pass- es,|and to seize, _ and to|
 GA FA G2 |[Q:1/4=120]"^Animato" z6 |!ff! z6 |!ff! e>e e3 d | c>d c2 ^B z | c4 c2 | c4 c2 | %19
w: grei- fen schnell im Lauf,|||das, ihr Freun- de|hält ihr Schwe- ben,|hält die|Flucht der|
w: seize its plea- sures bright,|||this, o friends, de-|lays its pro- gress,|stops it|in its|
!>(! f4 c2 | (e2!>)! d2) z2 |"^dolce"!mf! G>A B2 e2 | c>F B2 A2 | G>A B2 g2 | f>c e2 d2 | %25
w: Ta- ge|ein. _|Schnel- ler Gang ist|un- ser Le- ben,|schnel- ler Gang ist|un- ser Le- ben,|
w: on- wards|way, _|Yet too swift- ly|life is fleet- ing,|yet too swift- ly|life is fleet- ing,|
 c>d ec BA | GA FA G2 | !^!c3!<(! D DG!<)! |!>(! (F2 E2)!>)! !fermata!z2 || %29
w: lasst uns Ro- sen, lasst uns|Ro- sen auf ihn streun,|Ro- sen auf ihn|streun. _|
w: pluck we ros- es, pluck we|ros- es while we may,|ros- es while we|may. _|
[K:G][Q:1/4=120]"^poco meno vivace"!p! B4 E2 | !fermata!c2 B z !fermata!z2 |"^espress." B>c d2 G2 | %32
w: Ro- sen,|Ro- sen,|denn die Ta- ge|
w: Ros- es,|ros- es,|for the days are|
 _A2 G2 z2 | B>c ed =FG | _A>A G2 z2 |!<(! =F>F FG A!<)!B | cd =f2 e2 |!f! e>A d2 z2 | e>G d2 z2 | %39
w: sin- ken|in des Win- * * ters|Ne- bel- meer,|Ro- sen, denn sie blüh'n, sie|blüh'n und blin- ken|links und rechts,|links und rechts|
w: fad- ing|in the night _ _ of|win- ter's gloom,|ros- es, for a- round, a-|round our path- way|still they shed,|still they shed|
"^dolce"!<(! c2 d2 ^d2!<)! | (^d2 e2) z2 |!p! =d3 A A^A | BG d>c B2 |"^cresc." cF (e2 d)c | %44
w: noch um uns|her. _|Ro- sen steh'n auf|je- dem Zwei- * ge,|je- der schö- * nen|
w: their rare per-|fume; _|and each no- ble|deed ac- comp- * lished|is a flower _ on|
 B>d =f2 z2 ||[K:C]!ff! !^!c2 !^!E2 !^!A2 | (3Gcd e2 c z | (3^Fcd _e2 c z | g3 G (3GBd | %49
w: Ju- gend- tat.|Wohl ihm, der|bis auf die Nei- ge|bis auf die Nei- ge|rein ge- lebt * sein|
w: life's dull plath;|Well for him|who as he jour- neys,|who as he jour- neys|man- y such * sweet|
 =f2- f>e e2 | !^!c2 E2 A2 | (3Gcd e2 c z | (3B^de ^f2 B2 | a2- a>g g2 | =f2- f>e e2 | (d2 c2) A2 | %56
w: Le- * ben hat;|wohl ihm, der|bis auf die Nei- ge,|bis auf die Nei- ge|rein _ ge- lebt,|rein _ ge- lebt,|rein _ ge-|
w: ros- * es hath;|well for him|who as he jour- neys,|who as he jour- neys|man- * y such,|man- * y such,|man- * y|
 (^F2 E2) D2 | =f6- | f4 B2 | c2!>(! (c4 | G2)!>)!!p! A4 |[Q:1/4=120]"^rit." G2 z2 z2 | %62
w: lebt _ sein|Le-|* ben|hat; Wohl|ihm, wohl|ihm,|
w: such _ sweet|ros-|* es|hath; Well|_ for|him,|
!f!!<(! (G2 c2) d2!<)! |!ff! !fermata!e6 || %64
w: wohl, * wohl|ihm!|
w: well _ for|him!|
[K:G][M:2/4][Q:1/4=120]"^Quais l'istesso tempo""^dolce"!mf! G2 A2 | B2 g2 | f2 ^d2 | ^d4 | e2 d>c | %69
w: Ta- ge,|wer- det|uns zum|Kran-|ze der des|
w: Lenght of|years be-|come a|chap-|let while shall|
 c2 B2 | B3 B | B3 z | B2 G2 |"^cresc." F2 ^d2 | ^c2 F2 | e4 | ^d2!f! d>d | ^d2 e2 | f4- | f2 ^A2 | %80
w: Grei- ses|Schläf' um-|zieht,|und um|sie in|fri- schem|Glan-|ze wie ein|Traum der|Ju-|* gend|
w: crown the|hoar- y|head;|glad re-|mem- brance|still a-|wa-|king of our|youth- ful|days|_ now|
!>(! (B2 =A2)!>)! ||[K:E]!p! G3 G | G4- |!<(! G2 F2!<)! |!>(! c4- | c2!>)! B2 |!mf! d>c B2 | %87
w: blüht. _|Auch die|dun-|* keln|Blu-|* men|küh- * len,|
w: fled. _|E'en the|dark-|* est|hours|_ and|sad- * dest,|
 ed cB | B2 ^A2 |!p! (=A2 G)B | (B2 F) z | z2!pp! (3GcB | A4- | A2 z2 | z2"^dolce" A>A | A2 G2 | %96
w: küh- len uns mit|Ru- he,|dop- * pelt|süß, _|dop- * pelt|süß,|_|und die|lau- en|
w: though with tears with|tears they|fill _ our|eyes, _|with _ _|tears,|_|link- ed|are with|
 (=d2 F2 | A2) G2 |!<(! A2 B2!<)! |!>(! c2 F2!>)! | (G3 F) | B2 z2 | B2 c2 | =d2 G2 | (A3 G) | %105
w: Lüf- *|* te|spie- len,|spie- len|freund- *|lich,|spie- len,|spie- len|freund- *|
w: hap- *|* pier|mo- ments|lead- ing,|lead- ing|us,|lead- ing|us to|Par- a-|
 c2 z2 |!ppp! d3 d | d2 d2 | !fermata!e4 |"^cresc." ^A3 A | B2 e2 |!f! (g2 f2 | e2)!>(! ^B2 | %113
w: lich|uns ins|Pa- ra-|dies,|spie- len|uns ins|Pa- *|* ra-|
w: dise,|us to|Par- a-|dise,|lead- ing|us to|Par- *|* a-|
 (d2 c2)!>)! | z2!p! c2- | cc AG | E4 |!p! z4 | z4 | z G (3GcB | (B4 | F2) z2 | %122
w: dies, _|uns|_ ins Pa- ra-|dies,|||ins Pa- * ra-|dies,|_|
w: dise, _|us|_ to Par- a-|dise,|||to Par- * a-|dise,|_|
[Q:1/4=120]"^Meno vivace" z2"^dolce" EF |!<(! GA B^B | (^Bcfe!<)! | (d)e)!>(! (dc)!>)! | %126
w: und die|lau- en Lüf- te|spie- * * *|* * len _|
w: link- ed|are with hap- pier|mo * * *|* ments lead- ing|
!pp! B2 c2 | ^^c2 d2 |!<(! e4-!<)! |!>(! e4- | !fermata!e4!>)! |] %131
w: uns ins|Pa- ra-|dies.|_||
w: us to|Par- a-|dise!|_||
V:2
 E>E E2 x2 | E>E E2 x2 | E>E EE EE | ED DE E>G | F2 A>A A2 | x2 ^A2 A>A | (^A2 B2) x2 | E>E E2 E2 | %8
w: ||||||||
w: ||||||||
 E>E E2 D2 | E>E E2 B2 | A>F G2 F2 | E4- EE | DD DD D2 | x6 | c>c c2 C2 | G6 | A>A G2 G x | %17
w: |||sie * *|||das, ihr Freun- de|||
w: |||and * *|||this, o friends, de-|||
 z2 c2 B2 | (A2 G2) F2 | c4 F2 | (^A2 B2) x2 | E>E E2 E2 | E>E E2 D2 | E>E E2 B2 | A>F F2 F2 | %25
w: hält *||||||||
w: stops *||||||||
 E4- EE | DD DD D2 | D3 B, B,D | (D2 E2) x2 ||[K:G] B4 E2 | c2 B x x2 | =F>F F2 F2 | =F2 F2 x2 | %33
w: lasst _ _|_ _ _ _ _|||||||
w: pluck _ _|_ _ _ _ _|||||||
 =F>F F3 F | =F>F B,2 x2 | D>D DD DD | G=F A2 G2 | ^F>F F2 x2 | =F>F F2 x2 | E2 G2 A2 | %40
w: |||||||
w: |||||||
 (A2 ^G2) x2 | A3 F FF | GD B>A G2 | FF F3 F | G>G B2 x2 ||[K:C] c2 E2 A2 | (3Gcd e2 c x | %47
w: |||||||
w: |||||||
 (3^Fcc _e2 c x | B3 G (3:2:2G2 B | c2- c>c c2 | c2 E2 A2 | (3Gcd e2 c x | (3B^FG A2 B2 | %53
w: ||||||
w: ||||||
 c2- c>B B2 | A2- A>G G2 | d2 c2 A2 | ^F2 E2 D2 | D6- | D4 =F2 | E2 (F4 | E2) F4 | E2 x2 x2 | %62
w: |||||||||
w: |||||||||
 G4 F2 | G6 ||[K:G][M:2/4] E2 E2 | E2 B2 | A2 A2 | A4 | G2 B>A | A2 G2 | F2 (3FGA | (A2 G) x | %72
w: ||||||||Schläf' um- * *|zieht, _|
w: ||||||||hoar- y _ _|head; _|
 E2 E2 | E2 E2 | E2 F2 | (^G2 =G2) | F2 B>B | B2 B2 | B4- | B2 F2 | F4 ||[K:E] E3 E | (C4 | %83
w: _ _|||||||||||
w: _ _|||||||||||
 D2) D2 | D4- | D2 E2 | A2 A2 | GG EE | E2 E2 | (D2 E)E | D3 x | x2 (3:2:2E2 E | D4- | D2 x2 | %94
w: |||||||||||
w: |||||||||||
 x2 E>E | E2 E2 | F4 | E2 z2 | E2 E2 | E3 E | (D3 F) | (F2 E2) | F2 F2 | F3 F | (^E3 E) | (G2 F2) | %106
w: ||Lüf-|te||spie- len,||||spie- len|||
w: ||hap-|pier||lea- ding,||||us to|||
 F3 F | F2 F2 | =G4 | E3 E | E2 ^G2 | (B2 A2 | G2) F2 | G4 | x2 E2- | EE DD | E4 | A2 GB | %118
w: |||||||||||ins Pa- ra-|
w: |||||||||||to Par- a-|
 (B2 F) z | x E (3:2:2E2 E | D4- | D2 x2 | x2 B,D | EF GF | E4- | E2 (FF) | F2 G2 | G2 A2 | %128
w: dies, _||||||spie-|* len _|uns ins|Pa- ra-|
w: dise, _||||||mo-|ments lead- ing|us to|Par- a-|
 G2 A2- | A2 EF | G4 |] %131
w: dies, ins|_ Pa- ra-|dies.|
w: dise, to|_ Par- a-|dise!|
V:3
 x6 | x6 | x6 | x6 | x6 | x6 | x6 | x6 | x6 | x6 | x6 | x6 | x6 | x6 | x6 | G4- GG | x6 | x6 | x6 | %19
w: |||||||||||||||hält, * *||||
w: |||||||||||||||lays, _ de~~\-||||
 x6 | x6 | x6 | x6 | x6 | x6 | x6 | x6 | x6 | x6 ||[K:G] x6 | x6 | x6 | x6 | x6 | x6 | x6 | x6 | %37
w: ||||||||||||||||||
w: ||||||||||||||||||
 x6 | x6 | x6 | x6 | x6 | x6 | x6 | x6 ||[K:C] x6 | x6 | x6 | x6 | x6 | x6 | x6 | x6 | x6 | x6 | %55
w: ||||||||||||||||||
w: ||||||||||||||||||
 x6 | x6 | x6 | x6 | x6 | x6 | x6 | x6 | x6 ||[K:G][M:2/4] x4 | x4 | x4 | x4 | x4 | x4 | x4 | x4 | %72
w: |||||||||||||||||
w: |||||||||||||||||
 x4 | x4 | x4 | x4 | x4 | x4 | x4 | x4 | x4 ||[K:E] x4 | x4 | x4 | x4 | x4 | x4 | x4 | x4 | x4 | %90
w: ||||||||||||||||||
w: ||||||||||||||||||
 x4 | x4 | x4 | x4 | x4 | x4 | x4 | x4 | x4 | x4 | x4 | x4 | x4 | x4 | x4 | x4 | x4 | x4 | x4 | %109
w: |||||||||||||||||||
w: |||||||||||||||||||
 x4 | x4 | x4 | x4 | x4 | x4 | x4 | x4 | x4 | x4 | x4 | x4 | x4 | x4 | x4 | x4 | x4 | x4 | x4 | %128
w: |||||||||||||||||||
w: |||||||||||||||||||
 x4 | x4 | x4 |] %131
w: |||
w: |||
V:4
"^dolce" c>B B2 z2 | z2 e>B G2 | c>c BA GA | cB BB B>B | B2 f>e d2 | z2!f! e2 =g>f | f4 z2 | %7
w: Flüch- ti- ger,|flüch- ti- ger,|flüch- ti- ger als Wind, als|Wind und Wel- le flieht die|Zeit, flieht die Zeit,|was hält sie|auf?|
w: Swift- er far,|swift- er far,|swift- er than the waves, the|waves and breez- es flees the|time, flees the time,|what stays its|flight?|
 z2"^dolce" B2 G2 | c4 B2 | z2 B2 e2 | c2 ^B2 z2 |!f! c>d (ec) cc | ^BB cc B2 |!ff! c>c c2 C2 | %14
w: Sie ge-|nie- ßen|auf der|Stel- le,|sie er- grei- fen, sie er-|grei- fen schnell im Lauf,|das, ihr Freun- de|
w: To en-|joy it|ere it|pass- es,|and to seize, _ and to|seize its plea- sures bright,|this, o friends, de-|
 (B4 A2) | c>c c3 =B | e>f e2 d z | c4 c2 | c4 c2 | (c2 f2) e2 | (c2 d2) z2 | %21
w: hält, _|hält ihr Schwe- ben,|hält ihr Schwe- ben,|hält die|Flucht der|Ta- * ge|ein. _|
w: lays, _|this, o friends, de-|lays its pro- gress,|stops it|in its|on- * wards|way, _|
 z2"^dolce"!mf! B2 G2 | c4 B2 | B4 e2 | c2 ^B2 z2 | c>d ec cc | ^BB cc B2 | !^!=B3 A AB | %28
w: Schnel- ler|Gang ist|un- ser|Le- ben,|lasst uns Ro- sen, lasst uns|Ro- sen auf ihn streun,|Ro- sen auf ihn|
w: Yet too|swift- ly|life is|fleet- ing,|pluck we ros- es, pluck we|ros- es while we may,|ros- es while we|
 (A2 G2) !fermata!z2 ||[K:G]!p! B4 E2 | !fermata!c2 B z !fermata!z2 | G>A B2 d2 | =f2 B2 z2 | %33
w: streun. _|Ro- sen,|Ro- sen,|denn die Ta- ge|sin- ken|
w: may. _|Ros- es,|ros- es,|for the days are|fad- ing|
 d>c (c2 B)d | =f>f G2 z2 | c>c BB BG | GB B2 c2 |!f! c>c c2 z2 | c>B B2 z2 |"^dolce" c2 B2 A2 | %40
w: in des Win- * ters|||||||
w: in the night _ of|||||||
 (c2 B2) z2 |!p! d3 c cc | dB d3 d | Ac (c2 B)A | G>B d2 z2 ||[K:C]!ff! !^!c2 !^!E2 !^!A2 | %46
w: |Ro- sen steh'n auf|je- dem Zwei- ge,|je- der schö- * nen|Ju- gend- tat.|Wohl ihm, der|
w: |and each no- ble|deed ac- comp- lished|is a flower _ on|life's dull plath;|Well for him|
 (3Gcd e2 c z | (3^Fcd _e2 c z | =f3 B (3Bdf | a2- a>g g2 | !^!c2 E2 A2 | (3Gcd e2 c z | %52
w: bis auf die Nei- ge|bis auf die Nei- ge|rein ge- lebt * sein|Le- * ben hat;|wohl ihm, der|bis auf die Nei- ge,|
w: who as he jour- neys,|who as he jour- neys|man- y such * sweet|ros- * es hath;|well for him|who as he jour- neys,|
 (3B^fe e2 ^d2 | e2- e>e e2 | c2- c>c c2 | (d2 c2) A2 | (^F2 E2) D2 | (A6 | B4) d2 | c2 (A4 | %60
w: bis auf die Nei- ge|rein _ ge- lebt,|rein _ ge- lebt,|rein _ ge-|lebt _ sein|Le-|* ben|hat; Wohl|
w: who as he jour- neys|man- * y such,|man- * y such,|man- * y|such _ sweet|ros-|* es|hath; Well|
 G2)!p! B4 | c2 z2 z2 |!f! g4 B2 |!ff! !fermata!c6 ||[K:G][M:2/4]"^dolce"!mf! E2 ^F2 | G2 B2 | %66
w: ihm, wohl|ihm,|wohl, wohl|ihm!|Ta- ge,|wer- det|
w: _ for|him,|well for|him!|Lenght of|years be-|
 c2 B>f | f4 | e2 e>e | e2 e2 | e2 (3^def | (f2 e) z | e2 B2 | B2 ^A2 | ^G2 ^A2 | B4 | B2!f! B>B | %77
w: uns zum *|Kran-|ze der des|Grei- ses|Schläf' um- * *|zieht, _|und um|sie in|fri- schem|Glan-|ze wie ein|
w: come a *|chap-|let while shall|crown the|hoar- y _ _|head; _|glad re-|mem- brance|still a-|wa-|king of our|
 B2 ^c2 | (^d2 =d2 | ^c2) e2 | ^d4 ||[K:E]!p! B3 B | (^A4 | =A2) A2 | A4- | A2 G2 |!mf! f>e d2 | %87
w: Traum der|Ju- *|* gend|blüht.|Auch die|dun-|* keln|Blu-|* men|küh- * len|
w: youth- ful|days _|_ now|fled.|E'en the|dark-|* est|hours|_ and|sad- * dest,|
 e3 e | c2 c2 |!p! B3 B | B3 z | z2!pp! (3:2:2E2 G | B4- | B2 z2 |"^dolce" c2- c>c | c2 =c2 | %96
w: uns mit|Ru- he,|dop- pelt|süß,|dop- pelt|süß,|_|und _ die|lau- en|
w: though with|tears they|fill our|eyes,|with _|tears,|_|link- * ed|are with|
 (B2 =d2) | E2 z2 | e2 =d2 | c2 c2 | B2- B2 | B2 z2 | f2 e2 | =d2 ^d2 | c2- c2 | c2 z2 | %106
w: Lüf- *|te|spie- len,|spie- len,|freund- *|lich,|spie- len,|spie- len|freund- *|lich|
w: hap- *|pier|mo- ments|lea- ding,|lead- ing|us,|lead- ing|us to|Par- a-|dise,|
!ppp! =c3 c | =c2 c2 | !fermata!=c4 | ^c3 c | B4 |!f! d4 | e2 d2 | c4 | z2!p! A2- | AA cB | G4 | %117
w: uns ins|Pa- ra-|dies,|spie- len|uns|ins|Pa- ra-|dies,|uns|_ ins Pa- ra-|dies,|
w: us to|Par- a-|dise,|lead- ing|us|to|Par- a-|dise,|us|_ to Par- a-|dise.|
!p! d2 ee | d3 z | z E (3:2:2E2 E | B4- | B2 z2 | z2"^dolce" GB | e3 d | c4- | c2 e2 |!pp! d2 e2 | %127
w: ins Pa- ra-|dies,|ins Pa- ra-|dies,|_||Lüf- te|spie-|* len|uns ins|
w: to Par- a-|dise,|to Par- a-|dise,|_||us to|Par-|* a-|dise, to|
 e2 f2 | B2 c2- | c2 GA | !fermata!B4 |] %131
w: Pa- ra-|dies, ins|_ Pa- ra-|dies.|
w: Par- a-|dise, to|_ Par- a-|dise!|
V:5
 z2"^dolce" B,>G, E,2 | A,>G, G,2 z2 | z2 z2 z A, | F,B,, E,B, G,>E, | B,,2 B,>B, B,2 | %5
w: Flüch- ti- ger,|flüch- ti- ger,|als|Wind und Wel- le flieht die|Zeit, flieht die Zeit,|
w: Swift- er far,|swift- er far,|than|waves and breez- es flees the|time, flees the time,|
 z2!f! F,2 F,>F, | B,4 z2 |!mf! E,>F, G,2 C,2 | A,>A, F,2 B,2 | E,>F, G,2 E,2 | A,>A, G,2 G,2 | %11
w: was hält sie|auf?|Sie ge- nie- ßen|auf der Stel- le,|sie ge- nie- ßen|auf der Stel- le,|
w: what stays its|flight?|To en- joy it|ere it pass- es,|to en- joy it|ere it pass- es,|
!f! A,>B, (CA,) G,F, | G,G, A,F, G,2 |!ff! C>C C2 C,2 | (B,4 A,2) | G,4 G,2 | G,2 G,2 z2 | %17
w: sie er- grei- fen, sie er-|grei- fen schnell im Lauf,|das, ihr Freun- de|hält, _|hält ihr|Schwe- ben,|
w: and to seize, _ and to|seize its plea- sures bright,|this, o friends, de-|lays, de-|lays its|pro- gress,|
 z2 A,2 G,2 | (F,2 E,2) D,2 | A,4 ^A,2 | B,4 z2 |"^dolce"!mf! E,>F, G,2 C,2 | A,>A, F,2 B,2 | %23
w: hält die|Flucht _ der|Ta- ge|ein.|Schnel- ler Gang ist|un- ser Le- ben,|
w: stops it|in _ its|on- wards|way,|Yet too swift- ly|life is fleet- ing,|
 E,>F, G,2 E,2 | A,>A, G,2 G,2 | A,>B, CA, G,F, | G,G, A,F, G,2 | !^!A,3 B,, B,,B,, | %28
w: schnel- ler Gang ist|un- ser Le- ben,||||
w: yet too swift- ly|life is fleet- ing,||||
 E,4 !fermata!z2 ||[K:G]!p! B,4 E,2 | !fermata!C2 B, z !fermata!z2 | z6 | B,>C D2 G,2 | %33
w: ||||denn die Ta- ge|
w: ||||for the days are|
 _A,2 G,2 z2 | B,>C ED =F,G, | _A,>A, (G,3 =F,) | E,D, C,3 C, |!f! D,2- D,>E, D,2 | %38
w: sin- ken|in des Win- * * ters|Ne- bel- meer, _|Ro- sen blin- ken|links _ und rechts,|
w: fad- ing|in the night _ _ of|win- ter's gloom, _|Ros- es bloom and|still _ they shed,|
 G,2- G,>F, G,2 |"^dolce" A,2 G,2 =F,2 | E,4 z2 |!p! ^F,3 D, _E,D, | G,G, F,2 G,2 | G,G, D,3 D, | %44
w: links _ und rechts,|noch um uns|her.||||
w: still _ they shed,|their rare per-|fume;||||
 G,,>G, G,2 z2 ||[K:C]!ff! !^!C2 !^!E,2 !^!A,2 | (3G,CD E2 C z | (3^F,CD _E2 C z | G,3 G, G,G, | %49
w: |||||
w: |||||
 C2- C>C C2 | C2 E,2 A,2 | (3G,CD E2 C z | (3:2:2B,2 B, B,2 B,2 | E2- E>E, E,2 | F,2- F,>C C2 | %55
w: ||||||
w: ||||||
 (D2 C2) A,2 | (^F,2 E,2) D,2 | (D,6 | G,4) G,2 | C,2 (C,4 | C,2) z2 z2 |!f! (C,2 E2 C2) | %62
w: ||||||wohl, _ _|
w: ||||||well _ _|
!f! (G,2 E,2) D,2 |!ff! !fermata!C,6 ||[K:G][M:2/4]"^dolce"!mf! C,2 C,2 | B,,2 E,2 | A,2 B,2 | C4 | %68
w: _ _ _||||||
w: _ _ _||||||
 C2 A,>G, | F,2 G,>A, | B,2 B,2 | E,3 z | G,2 E,2 | F,4- | F,2 F,2 | (B,,2 B,2) | B,2!f! ^G,>G, | %77
w: ||||und um|sie|_ im|Glan- *|ze * *|
w: ||||glad re-|mem-|brance a-|wa- *|king * *|
 ^G,2 =G,2 | F,4- | F,2 F,2 | B,4 ||[K:E]!p! E,3 E, | E,4- | E,2 E,2 | E,4- | E,2 E,2 | %86
w: |||||||||
w: |||||||||
!mf! B,2 B,2 | CB, A,G, | =G,2 F,2 |!p! (B,,2 E,)G, | B,3 z | z4 | z4 | z4 | z4 | z4 | B,3 B, | %97
w: ||||||||||und die|
w: ||||||||||link- ed|
 B,2 E,2 | C2 B,2 | A,2 ^A,2 | (B,2 =A,2) | G,2 z2 | =D2 C2 | B,2 ^B,2 | (C2 =B,2) | A,2 z2 | %106
w: Lüf- te|spie- len,|spie- len,|||||||
w: are with|hap- pier|mo- ments|||||||
!ppp! A,3 A, | A,2 A,2 | !fermata!=G,4 | F,3 F, | %110
w: ||||
w: ||||
"^uns   ins         Pa -""^us     to         Par -" ^G,2 E,2 |!f! (B,,2 ^B,,2 | %112
w: ||
w: ||
 C,2)"^ra   -  dies,""^a   -  dise," D,2 | E,4 | z2!p! F,2- | F,B,, B,,B,, | E,4 |!p! B,2 E,G, | %118
w: ||||||
w: ||||||
 B,3 z | z4 | z4 | z4 | z4 | z2"^dolce" E,G, | A,3 A, | A,2 ^A,2 |!pp! B,3 B, | B,2 B,2 | E,4- | %129
w: |||||und die|Lüf- te|spie- len|uns ins|Pa- ra-|dies.|
w: |||||lead- ing|us to|Par- a-|dise, to|Par- a-|dise!|
 E,4- | !fermata!E,4 |] %131
w: _||
w: _||
V:6
!mp! [EA]>[EG] [EG]2 z2 | [Ec]>[EB] [EB]2 z2 | [Ee]>[Ee] dc BA | [EA][DB] [DA][EG] [EB]>[Gc] | %4
 [Fd]2 [Ad]>[Ae] [Af]2 | z2 [^A=g]2 A>[Ee] | [^Ae]2 [Bd]2 z2 | [EG]>[EA] [EB]2 [Ee]2 | %8
 [Ec]>[EF] [EB]2 [DA]2 | [EG]>[EA] [EB]2 [Bg]2 | [Af]>[Fc] [Ge]2 [Fd]2 | c>d ecBA | GAFA G2 | z6 | %14
 c>c c2 C2 | e>e e3 [Gd] | [Ac]>[Ad] [Gc]2 [G^B] z | c4 c2 | c4 c2 | [cf]4 [Fc]2 | %20
 [^Ae]2 [Bd]2 z2 | [EG]>[EA] [EB]2 [Ee]2 | [Ec]>[EF] [EB]2 [DA]2 | [EG]>[EA] [EB]2 [Bg]2 | %24
 [Af]>[Fc] [Fe]2 [Fd]2 | c>d ec BA | [DG][DA] [DF][DA] [DG]2 | !^![Dc]3 [B,D] [B,D][DG] | %28
 [DF]2 E2 !fermata!z2 ||[K:G] B4 E2 | !fermata!c2 B z !fermata!z2 | [=FB]>[Fc] [Fd]2 [FG]2 | %32
 [=F_A]2 [FG]2 z2 | [=FB]>[Fc] edFG | [=F_A]>[FA] [B,G]2 z2 | [D=F]>[DF] [DF][DG][DA][DB] | %36
 [Gc][=Fd] [A=f]2 [Ge]2 | [^Fe]>[FA] [Fd]2 z2 | [=Fe]>[FG] [Fd]2 z2 | [Ec]2 [Gd]2 [A^d]2 | %40
 [A^d]2 [^Ge]2 z2 | [A=d]3 [FA] [FA][F^A] | [GB][DG][Bd]>[Ac] [GB]2 | [Fc]F e2 dc | %44
 [GB]>[Gd] [B=f]2 z2 ||[K:C] c2 E2 A2 | (3Gcd e2 c z | (3^Fcd _e2 c z | [Bg]3 G (3GB[Bd] | %49
 [cf]2- [cf]>[ce] [ce]2 | c2 E2 A2 | (3Gcd e2 c z | (3B^d[Ge] ^f2 B2 | [ca]2- [ca]>[Bg] [Bg]2 | %54
 [Af]2- [Af]>[Ge] [Ge]2 | (d2 c2) A2 | (^F2 E2) D2 | =f6 | [Ff]4 [FB]2 | [Ec]2 ([Fc]4 | %60
 [EG]2) [FA]4 | [EG]2 z2 z2 | G2 c2 d2 | !fermata![Ge]6 ||[K:G][M:2/4] [EG]2 [EA]2 | [EB]2 [Bg]2 | %66
 [Af]2 [A^d]2 | [A^d]4 | [Ge]2 [Bd]>[Ac] | [Ac]2 [GB]2 | B3 B | A3 z | B2 G2 | F2 ^d2 | ^c2 F2 | %75
 e4 | ^d2 d>d | ^d2 e2 | f4- | f2 ^A2 | (B2 =A2) ||[K:E] [EG]3 [EG] | ([CG-]4 | [DG]2) [DF]2 | %84
 [Dc]4- | [Dc]2 [EB]2 | d>c B2 | [Ge][Gd][Ec][EB] | [EB]2 [E^A]2 | [D=A]2 [EG][EB] | (B2 F) z | %91
 z2 (3GcB | [DA]4- | [DA]2 z2 | z2 [EA]>[EA] | [EA]2 [EG]2 | =d2 F2 | A2 G2 | [EA]2 [EB]2 | c2 F2 | %100
 G3 F | B2 z2 | [FB]2 [Fc]2 | =d2 G2 | [^EA]3 [EG] | c2 z2 | [Fd]3 [Fd] | [Fd]2 [Fd]2 | %108
 !fermata![=Ge]4 | [E^A]3 [EA] | [EB]2 [^Ge]2 | [Bg]2 [Af]2 | [Ge]2 [F^B]2 | (d2 c2) | z2 [Ec]2- | %115
 [Ec][Ec][DA][DG] | E4 | [DA]2 [EG][EB] | (B2 F) z | z G (3GcB | ([D-B]4 | [DF]2) z2 | %122
 z2 [B,E][DF] | [EG][FA][GB][F^B] | ^Bcfe | de[Fd][Fc] | [FB]2 [Gc]2 | [G^^c]2 [Ad]2 | e4- | e4- | %130
 !fermata!e4 |] %131
V:7
"^dolce" (C>B,) B,>G, E,2 | A,>G, G,>B, G,2 | C>C B,A, G,F, | %3
 [F,C][B,,B,] [E,B,]B,!<(! [G,B,]>[E,B,] | [B,,B,]2 [B,F]>[B,E]!<)! [B,D]2 | %5
 z2!f! [F,E]2 [F,=G]>[F,F] | [B,F]4 z2 |!mf! E,>F, [G,B,]2 [C,G,]2 | C4 B,2 | %9
 E,>F, [G,B,]2 [E,E]2 | C2 [G,^B,]2 G,2 |!f! C>D ECCC | ^B,B,CC B,2 |!ff! C>C C2 C,2 | B,4 A,2 | %15
 C>C C3 =B, | E>F E2 D z | C4 C2 | C4 C2 |!>(! C2 F2 E2!>)! | C2 D2 z2 | %21
"^dolce"!mf! E,>F, [G,B,]2 [C,G,]2 | C4 B,2 | B,4 E2 | C2 ^B,2 G,2 | %25
 [A,C]>[B,D] [CE][A,C] [G,C][F,C] | [G,^B,][G,B,] [A,C][F,C] [G,B,]2 | %27
 [A,=B,]3!<(! [B,,A,] [B,,A,][B,,B,]!<)! |!>(! A,2 G,2!>)! !fermata!z2 ||[K:G]!p! B,4 E,2 | %30
 !fermata!C2 B, z !fermata!z2 | G,>A, B,2 D2 | =F2 [B,D]2 G,2 | D>C C2 B,D | B,>C ED =F,G, | %35
!<(! C>C B,B,B,!<)!G, | G,B, B,2 C2 |!f! C>C C2 x2 | C>B, B,2 x2 | %39
"^dolce"!<(! [A,C]2 [G,B,]2 [=F,A,]2!<)! | C2 B,2 z2 |!p! [F,D]3 [D,C] [_E,C][D,C] | x2 D3 D | %43
"^cresc." x2 C2 B,A, | [G,,G,]>[G,B,] [G,D]2 z2 ||[K:C]!ff! !^!C2 E,2 A,2 | (3G,CD E2 C z | %47
 (3^F,CD _E2 C z | =F3 B, (3B,DF | [CA]2- [CA]>[CG] [CG]2 | C2 E,2 A,2 | (3G,CD E2 C z | %52
 (3B,^F[B,E] E2 ^D2 | E2- E>[E,E] [E,E]2 | [F,C]2- [F,C]>C C2 | (D2 C2) A,2 | (^F,2 E,2) D,2 | %57
 [D,A,D]6 | [G,B,]4 [G,D]2 | [C,C]2!>(! [C,-A,]4 | [C,G,]2!>)!!p! B,4 | [C,C]2 E2 C2 | %62
!f!!<(! x4 B,2!<)! |!ff! [C,C]6 ||[K:G][M:2/4]"^dolce"!mf! [C,E,]2 [C,^F,]2 | [B,,G,]2 [E,B,]2 | %66
 [A,C]2 B,>F | [CF]4 | [CE]2 [A,E]>[G,E] | E2 E2 | E2 (3^DEF | F2 E z | x2 B,2 | %73
"^cresc." B,2 ^A,2 | ^G,2 ^A,2 | B,4 | B,2!f! B,>B, | B,2 ^C2 | ^D2 =D2 | ^C2 E2 | ^D4 || %81
[K:E]!p! [E,B,]3 [E,B,] | ([E,-^A,]4 | [E,=A,]2)!<(! [E,A,]2!<)! | [E,A,]4- | %85
!>(! [E,A,]2 [E,G,]2!>)! |!mf! F>E D2 | E3 x | C2 C2 |!p! B,3 B, | B,3 z | z2!pp! (3:2:2E,2 G, | %92
 B,4- | B,2 z2 |"^dolce" C2- C>C | C2 =C2 | B,2 =D2 | [E,B,]2 E,2 |!<(! [CE]2 [B,=D]2!<)! | %99
!>(! [A,C]2 [^A,C]2!>)! | B,4 | [G,B,]2 z2 | =D2 E2 | [B,=D]2 [^B,^D]2 | C4 | [A,C]2 z2 | %106
!ppp! [A,=C]3 [A,C] | [A,=C]2 [A,C]2 | !fermata![=G,=C]4 |"^cresc." [F,^C]3 [F,C] | B,4 |!f! D4 | %112
 [C,E]2 [D,D]2 |!>(! [E,C]4!>)! | z2!p! [F,A,]2- | [F,A,][B,,A,][B,,C][B,,B,] | [E,G,]4 | %117
!p! [B,D]2 E,G, | B,3 z | z E, (3:2:2E,2 G, | B,4- | B,2 z2 | z2"^dolce" G,B, | E2 E,[G,D] | %124
!<(! C4!<)! |!>(! [A,C]2 [^A,E]2!>)! |!pp! D2 E2 | [B,E]2 [B,F]2 |!<(! B,2 C2-!<)! | C2 G,!>(!A, | %130
 B,4!>)! |] %131
V:8
 x6 | x6 | x2 E4 | x6 | x6 | x6 | x6 | x6 | x6 | x6 | x6 | E4- EE | DDDD D2 | x6 | x6 | G6 | x6 | %17
 z2 c2 B2 | A2 G2 F2 | x6 | x6 | x6 | x6 | x6 | x6 | E4- EE | x6 | x6 | x6 ||[K:G] x6 | x6 | x6 | %32
 x6 | x2 =F3 F | x6 | x6 | x6 | x6 | x6 | x6 | x6 | x6 | x6 | x2 F3 F | x6 ||[K:C] x6 | x6 | x6 | %48
 x6 | x6 | x6 | x6 | x2 A2 B2 | x6 | x6 | x6 | x6 | x6 | x6 | x6 | x6 | x6 | G4 F2 | x6 || %64
[K:G][M:2/4] x4 | x4 | x4 | x4 | x4 | x4 | F2 (3FGA | A2 G x | E2 E2 | E2 E2 | E2 F2 | ^G2 =G2 | %76
 F2 B>B | B2 B2 | B4- | B2 F2 | F4 ||[K:E] x4 | x4 | x4 | x4 | x4 | A2 A2 | x4 | x4 | x4 | D3 x | %91
 x2 E2 | x4 | x4 | x4 | x4 | F2 F2 | E2 z2 | x4 | E3 E | D3 F | (F2 E2) | x4 | F3 F | x4 | %105
 (G2 F2) | x4 | x4 | x4 | x4 | x4 | x4 | x4 | G4 | x4 | x4 | x4 | x4 | D3 x | x E (3:2:2E2 E | x4 | %121
 x4 | x4 | x4 | E4 | E2 x2 | x4 | x4 | G2 A2- | A2 EF | G4 |] %131
V:9
 x6 | x6 | x6 | x6 | x6 | x6 | x6 | x6 | A,>A, F,2 B,2 | x6 | A,>A, x4 | A,>B, CA,G,F, | %12
 G,G,A,F, G,2 | x6 | x6 | G,4 x2 | G,2 G,2 z2 | z2 A,2 G,2 | F,2 E,2 D,2 | A,4 ^A,2 | B,4 x2 | x6 | %22
 A,>A, F,2 B,2 | E,>F, G,2 E,2 | A,>A, G,2 x2 | x6 | x6 | x6 | E,4 x2 ||[K:G] x6 | x6 | x6 | %32
 B,>C x4 | _A,2 G,2 z2 | x2 G,2 x2 | _A,>A, G,3 =F, | E,D, C,3 C, | D,2- D,>E, D,2 | %38
 G,2 G,>F, G,2 | x6 | E,4 x2 | x6 | [G,D][G,B,] F,2 G,2 | [G,A,][G,C] D,3 D, | x6 || %45
[K:C] C2 E,2 A,2 | x6 | x6 | G,3 G, G,G, | x6 | x6 | x6 | x2 B,2 B,2 | x6 | x6 | x6 | x6 | x6 | %58
 x6 | x6 | x6 | x6 | G,2 E,2 D,2 | x6 ||[K:G][M:2/4] x4 | x4 | x4 | x4 | x4 | F,2 G,>A, | B,2 B,2 | %71
 E,3 x | G,2 E,2 | F,4 | F,2 F,2 | B,,2 B,2 | B,2 ^G,>G, | ^G,2 =G,2 | F,4- | F,2 F,2 | B,4 || %81
[K:E] x4 | x4 | x4 | x4 | x4 | B,2- B,2 | CB,A,G, | =G,2 F,2 | B,,2 E,G, | B,3 x | x4 | x4 | x4 | %94
 x4 | x4 | B,3 B, | x4 | x4 | x4 | B,2 =A,2 | x4 | x4 | x4 | C2 B,2 | x4 | x4 | x4 | x4 | x4 | %110
 ^G,2 E,2 | B,,2 ^B,,2 | x4 | x4 | x4 | x4 | x4 | x4 | x4 | x4 | x4 | x4 | x4 | x4 | A,3 A, | x4 | %126
 B,3 B, | x4 | E,4 | E,4 | !fermata!E,4 |] %131

